build/Karasa-Jaga/scalable/status/changes-prevent-symbolic.svg

<svg height="16" viewBox="0 0 4.2333332 4.2333335" width="16" xmlns="http://www.w3.org/2000/svg"><path d="m8 1c-2.2160001 0-4 1.8216181-4 4.0625v1.9375h-2v8h12v-8h-2v-1.9375c0-2.2400126-1.784-4.0625-4-4.0625zm0 .6816406c1.84184 0 3.318359 1.5031994 3.318359 3.3808594v1.9375a.68250011.68250011 0 0 0 .681641.6816406h1.318359v6.6367184h-10.6367184v-6.6367184h1.3183594a.68250011.68250011 0 0 0 .6816406-.6816406v-1.9375c0-1.87869 1.4763494-3.3808594 3.3183594-3.3808594zm0 .6367188c-1.47426 0-2.6816406 1.2073706-2.6816406 2.6816406v2a.68250011.68250011 0 0 0 .6816406.6816406h4a.68250011.68250011 0 0 0 .681641-.6816406v-2c0-1.47427-1.207371-2.6816406-2.681641-2.6816406zm0 .6816406c1.1079999 0 2 .8920315 2 2v2h-4v-2c0-1.1079685.8919997-2 2-2z" fill="#bebebe" transform="scale(.26458333)"/></svg>

<?xml version="1.0" encoding="UTF-8" standalone="no"?>
<!-- Created with Inkscape (http://www.inkscape.org/) -->

<svg
   xmlns:osb="http://www.openswatchbook.org/uri/2009/osb"
   xmlns:dc="http://purl.org/dc/elements/1.1/"
   xmlns:cc="http://creativecommons.org/ns#"
   xmlns:rdf="http://www.w3.org/1999/02/22-rdf-syntax-ns#"
   xmlns:svg="http://www.w3.org/2000/svg"
   xmlns="http://www.w3.org/2000/svg"
   xmlns:sodipodi="http://sodipodi.sourceforge.net/DTD/sodipodi-0.dtd"
   xmlns:inkscape="http://www.inkscape.org/namespaces/inkscape"
   width="16"
   height="16"
   viewBox="0 0 4.2333332 4.2333335"
   version="1.1"
   id="svg823"
   inkscape:version="0.92.2 (unknown)"
   sodipodi:docname="changes-prevent-symbolic.svg">
  <defs
     id="defs817">
    <linearGradient
       osb:paint="solid"
       id="linearGradient6882">
      <stop
         style="stop-color:#555555;stop-opacity:1;"
         offset="0"
         id="stop6884" />
    </linearGradient>
    <linearGradient
       osb:paint="solid"
       id="linearGradient5606">
      <stop
         style="stop-color:#000000;stop-opacity:1;"
         offset="0"
         id="stop5608" />
    </linearGradient>
  </defs>
  <sodipodi:namedview
     id="base"
     pagecolor="#ffffff"
     bordercolor="#666666"
     borderopacity="1.0"
     inkscape:pageopacity="0.0"
     inkscape:pageshadow="2"
     inkscape:zoom="30.25"
     inkscape:cx="1.676189"
     inkscape:cy="8.6866265"
     inkscape:document-units="mm"
     inkscape:current-layer="layer1"
     showgrid="false"
     units="px"
     inkscape:window-width="1366"
     inkscape:window-height="716"
     inkscape:window-x="0"
     inkscape:window-y="27"
     inkscape:window-maximized="1" />
  <metadata
     id="metadata820">
    <rdf:RDF>
      <cc:Work
         rdf:about="">
        <dc:format>image/svg+xml</dc:format>
        <dc:type
           rdf:resource="http://purl.org/dc/dcmitype/StillImage" />
        <dc:title />
      </cc:Work>
    </rdf:RDF>
  </metadata>
  <g
     inkscape:label="Layer 1"
     inkscape:groupmode="layer"
     id="layer1"
     transform="translate(0,-292.76665)">
    <path
       style="color:#000000;display:inline;overflow:visible;visibility:visible;fill:#bebebe;fill-opacity:1;fill-rule:nonzero;stroke:none;stroke-width:0.99999994;marker:none;enable-background:accumulate"
       d="M 8 1 C 5.7839999 1 4 2.8216181 4 5.0625 L 4 7 L 2 7 L 2 15 L 14 15 L 14 7 L 12 7 L 12 5.0625 C 12 2.8224874 10.216 1 8 1 z M 8 1.6816406 C 9.84184 1.6816406 11.318359 3.18484 11.318359 5.0625 L 11.318359 7 A 0.68250011 0.68250011 0 0 0 12 7.6816406 L 13.318359 7.6816406 L 13.318359 14.318359 L 2.6816406 14.318359 L 2.6816406 7.6816406 L 4 7.6816406 A 0.68250011 0.68250011 0 0 0 4.6816406 7 L 4.6816406 5.0625 C 4.6816406 3.18381 6.15799 1.6816406 8 1.6816406 z M 8 2.3183594 C 6.52574 2.3183594 5.3183594 3.52573 5.3183594 5 L 5.3183594 7 A 0.68250011 0.68250011 0 0 0 6 7.6816406 L 10 7.6816406 A 0.68250011 0.68250011 0 0 0 10.681641 7 L 10.681641 5 C 10.681641 3.52573 9.47427 2.3183594 8 2.3183594 z M 8 3 C 9.1079999 3 10 3.8920315 10 5 L 10 7 L 6 7 L 6 5 C 6 3.8920315 6.8919997 3 8 3 z "
       transform="matrix(0.26458333,0,0,0.26458333,0,292.76665)"
       id="path6014" />
    <g
       id="layer1-0"
       inkscape:label="places"
       style="display:inline"
       transform="matrix(0.18708867,-0.18708867,0.18708867,0.18708867,-46.672148,257.61169)" />
    <g
       id="layer14"
       inkscape:label="mimetypes"
       style="display:inline"
       transform="matrix(0.18708867,-0.18708867,0.18708867,0.18708867,23.67315,418.1338)" />
    <g
       id="layer15"
       inkscape:label="emblems"
       style="display:inline"
       transform="matrix(0.18708867,-0.18708867,0.18708867,0.18708867,23.67315,418.1338)" />
    <g
       id="g71291"
       inkscape:label="emotes"
       style="display:inline"
       transform="matrix(0.18708867,-0.18708867,0.18708867,0.18708867,23.67315,418.1338)" />
    <g
       id="layer2"
       inkscape:label="categories"
       style="display:inline"
       transform="matrix(0.18708867,-0.18708867,0.18708867,0.18708867,-18.608848,285.67499)" />
    <g
       id="layer12"
       inkscape:label="actions"
       style="display:inline"
       transform="matrix(0.18708867,-0.18708867,0.18708867,0.18708867,23.67315,418.1338)" />
    <g
       id="layer1-04"
       inkscape:label="places"
       style="display:inline"
       transform="matrix(0.26458333,0,0,0.26458333,-13.536708,190.54957)" />
    <g
       id="layer14-0"
       inkscape:label="mimetypes"
       style="display:inline"
       transform="matrix(0.26458333,0,0,0.26458333,-77.301343,353.79748)" />
    <g
       id="layer15-9"
       inkscape:label="emblems"
       style="display:inline"
       transform="matrix(0.26458333,0,0,0.26458333,-77.301343,353.79748)" />
    <g
       id="g71291-1"
       inkscape:label="emotes"
       style="display:inline"
       transform="matrix(0.26458333,0,0,0.26458333,-77.301343,353.79748)" />
    <g
       id="layer2-9"
       inkscape:label="categories"
       style="display:inline"
       transform="matrix(0.26458333,0,0,0.26458333,-13.536708,230.23707)" />
    <g
       id="layer12-6"
       inkscape:label="actions"
       style="display:inline"
       transform="matrix(0.26458333,0,0,0.26458333,-77.301343,353.79748)" />
    <g
       transform="matrix(0.26458333,0,0,0.26458333,-175.94866,402.56783)"
       style="display:inline;fill:#ff00ff;fill-opacity:1"
       inkscape:label="status"
       id="g5964" />
  </g>
</svg>
